X:1
T:Title
%%score { 1 | 2 }
L:1/8
M:2/4
K:G
V:1 treble nm="Grand Piano"
V:2 bass 
V:1
 z2 z[Q:1/4=100] [B,D] | [B,D][B,D] [DG]A | B B2 A | GG BB | [FA]3 [CD] | [B,D][B,D] [DG]A | %6
 B B2 d | [Gd]>[DGB] [CFA][DFB] |[M:1/4] [B,DG]2 | [DB][DB] |[M:2/4] [G,B,D]3 [G,B,D] | %11
 [G,CE][CEG] [B,DG]2 | [FA]3 [FA] | Bd dd | d3 B | dd BG | B>G AA |[M:3/8] [B,DG]3 |] %18
V:2
 z2 z [G,,G,] | [G,,G,][G,,G,] [B,,G,][D,F,D] | [G,D] G,2[K:treble] [G,CD] | %3
 [G,B,D][G,B,D] [G,DG][G,DG] | [D,D]3 [D,F,] | [G,,G,][G,,G,] [C,G,][D,F,D] | %6
 [G,D] [G,D]2 [G,B,G] | [D,B,]>D, D,D, |[M:1/4] G,,2 | G,G, |[M:2/4] G,,3 G,, | C,C, G,,2 | %12
 [D,D]3 [D,D] | [G,DG][G,B,G] [G,B,G][G,B,G] | [G,B,G]3 [G,DG] | %15
 [G,B,G][A,CG] [G,DG][K:bass][G,B,D] | [D,D]>[D,D] [D,CD][D,CD] |[M:3/8] G,,3 |] %18

